www/img/dribbble.svg

<?xml version="1.0" encoding="UTF-8" standalone="no"?>
<svg width="24px" height="24px" viewBox="0 0 24 24" version="1.1" xmlns="http://www.w3.org/2000/svg" xmlns:xlink="http://www.w3.org/1999/xlink">
    <!-- Generator: Sketch 3.8.3 (29802) - http://www.bohemiancoding.com/sketch -->
    <title>dribbble-icon</title>
    <desc>Created with Sketch.</desc>
    <defs></defs>
    <g id="Page-1" stroke="none" stroke-width="1" fill="none" fill-rule="evenodd">
        <g id="Desktop-HD" transform="translate(-287.000000, -484.000000)" fill="#000000">
            <g id="Group" transform="translate(249.000000, 482.000000)">
                <g id="dribbble-icon" transform="translate(38.000000, 2.000000)">
                    <path d="M0,12 C0,9.823992 0.536016,7.816008 1.608,5.976 C2.680008,4.135992 4.136016,2.680008 5.976,1.608 C7.816008,0.535992 9.824016,0 12,0 C14.176008,0 16.184016,0.535992 18.024,1.608 C19.864008,2.680008 21.320016,4.135992 22.392,5.976 C23.464008,7.816008 24,9.823992 24,12 C24,14.176008 23.464008,16.183992 22.392,18.024 C21.320016,19.864008 19.864008,21.319992 18.024,22.392 C16.184016,23.464008 14.176008,24 12,24 C9.824016,24 7.816008,23.464008 5.976,22.392 C4.136016,21.319992 2.680008,19.864008 1.608,18.024 C0.536016,16.183992 0,14.176008 0,12 L0,12 Z M1.992,12 C1.992,14.496 2.832,16.696008 4.512,18.6 C5.28,17.095992 6.496008,15.664008 8.16,14.304 C9.824016,12.943992 11.448,12.088008 13.032,11.736 C12.792,11.176008 12.560016,10.672008 12.336,10.224 C9.584016,11.104008 6.608016,11.544 3.408,11.544 C2.784,11.544 2.320008,11.536008 2.016,11.52 C2.016,11.584008 2.012016,11.664 2.004,11.76 C1.996008,11.856 1.992,11.935992 1.992,12 L1.992,12 Z M2.304,9.528 C2.656008,9.559992 3.176016,9.576 3.864,9.576 C6.536016,9.576 9.072,9.216 11.472,8.496 C10.256016,6.336 8.920008,4.536 7.464,3.096 C6.200016,3.736008 5.116008,4.624008 4.212,5.76 C3.308016,6.895992 2.672016,8.152008 2.304,9.528 L2.304,9.528 Z M5.88,19.896 C7.688016,21.304008 9.728016,22.008 12,22.008 C13.184016,22.008 14.360016,21.784008 15.528,21.336 C15.208008,18.6 14.584008,15.952008 13.656,13.392 C12.184008,13.711992 10.700016,14.52 9.204,15.816 C7.708008,17.112 6.6,18.472008 5.88,19.896 L5.88,19.896 Z M9.552,2.328 C10.960008,3.784008 12.264,5.599992 13.464,7.776 C15.640008,6.864 17.28,5.704008 18.384,4.296 C16.528008,2.76 14.4,1.992 12,1.992 C11.184,1.992 10.368,2.104008 9.552,2.328 L9.552,2.328 Z M14.328,9.48 C14.568,9.991992 14.840016,10.639992 15.144,11.424 C16.328016,11.311992 17.616,11.256 19.008,11.256 C20.000016,11.256 20.984016,11.28 21.96,11.328 C21.832008,9.151992 21.048,7.216008 19.608,5.52 C18.568008,7.072008 16.808016,8.392008 14.328,9.48 L14.328,9.48 Z M15.744,13.104 C16.56,15.472008 17.112,17.904 17.4,20.4 C18.664008,19.584 19.696008,18.535992 20.496,17.256 C21.296016,15.976008 21.776016,14.592 21.936,13.104 C20.768016,13.024008 19.704,12.984 18.744,12.984 C17.864016,12.984 16.864008,13.024008 15.744,13.104 L15.744,13.104 Z" id="Shape"></path>
                </g>
            </g>
        </g>
    </g>
</svg>

<svg width="24" height="24" viewBox="0 0 24 24" xmlns="http://www.w3.org/2000/svg"><title>Dribbble</title><path d="M0 12c0-2.176.536-4.184 1.608-6.024a11.915 11.915 0 0 1 4.368-4.368C7.816.536 9.824 0 12 0s4.184.536 6.024 1.608a11.915 11.915 0 0 1 4.368 4.368C23.464 7.816 24 9.824 24 12s-.536 4.184-1.608 6.024a11.915 11.915 0 0 1-4.368 4.368C16.184 23.464 14.176 24 12 24s-4.184-.536-6.024-1.608a11.915 11.915 0 0 1-4.368-4.368C.536 16.184 0 14.176 0 12zm1.992 0c0 2.496.84 4.696 2.52 6.6.768-1.504 1.984-2.936 3.648-4.296 1.664-1.36 3.288-2.216 4.872-2.568-.24-.56-.472-1.064-.696-1.512-2.752.88-5.728 1.32-8.928 1.32-.624 0-1.088-.008-1.392-.024 0 .064-.004.144-.012.24a2.985 2.985 0 0 0-.012.24zm.312-2.472c.352.032.872.048 1.56.048 2.672 0 5.208-.36 7.608-1.08-1.216-2.16-2.552-3.96-4.008-5.4A9.743 9.743 0 0 0 4.212 5.76a10.247 10.247 0 0 0-1.908 3.768zM5.88 19.896c1.808 1.408 3.848 2.112 6.12 2.112 1.184 0 2.36-.224 3.528-.672a35.241 35.241 0 0 0-1.872-7.944c-1.472.32-2.956 1.128-4.452 2.424S6.6 18.472 5.88 19.896zM9.552 2.328c1.408 1.456 2.712 3.272 3.912 5.448 2.176-.912 3.816-2.072 4.92-3.48C16.528 2.76 14.4 1.992 12 1.992c-.816 0-1.632.112-2.448.336zm4.776 7.152c.24.512.512 1.16.816 1.944a41.19 41.19 0 0 1 3.864-.168c.992 0 1.976.024 2.952.072-.128-2.176-.912-4.112-2.352-5.808-1.04 1.552-2.8 2.872-5.28 3.96zm1.416 3.624A34.448 34.448 0 0 1 17.4 20.4a10.014 10.014 0 0 0 3.096-3.144 9.694 9.694 0 0 0 1.44-4.152 47.055 47.055 0 0 0-3.192-.12c-.88 0-1.88.04-3 .12z" fill="#000" fill-rule="evenodd"/></svg>
